X:6
T:Out on the Bog
R:jig
C:Henrik Norbeck
H:May 1995
M:6/8
K:Am
ABc efd|cAd BGE|ABc eag|edc ~d3|efd ecA|dBG E^FG|Aag edB|1 cAA A2G:|2 cAA A2d||
|:eag efd|cec dBG|AcB ABc|dBe dBG|Ace age|dfe dBG|Aag edB|1 cAA A2d:|2 cAA A2G||

